Site26/img/svg/vk-ico.svg

<svg width="18" height="18" viewBox="0 0 18 18" fill="none" xmlns="http://www.w3.org/2000/svg">
<path d="M13.2463 0H4.75374C2.088 0 0 2.088 0 4.75374V13.2463C0 15.912 2.088 18 4.75374 18H13.2463C15.912 18 18 15.912 18 13.2463V4.75374C18 2.088 15.9114 0 13.2463 0ZM16.8387 13.2463C16.8387 15.2611 15.2605 16.8387 13.2463 16.8387H4.75374C2.73948 16.8387 1.16129 15.2605 1.16129 13.2463V4.75374C1.16129 2.73948 2.73948 1.16129 4.75374 1.16129H13.2463C15.2611 1.16129 16.8387 2.73948 16.8387 4.75374V13.2463Z" fill="black"/>
<path d="M12.0013 5.8972L12.0013 5.89717L11.9984 5.90416L11.9984 5.90418L11.9984 5.90425L11.9983 5.90435L11.9983 5.90455L11.9972 5.90706L11.9923 5.91885C11.9878 5.92965 11.9808 5.94621 11.9714 5.96802C11.9526 6.01164 11.9244 6.07613 11.8874 6.15722C11.8133 6.31959 11.7047 6.5474 11.5677 6.80673C11.3026 7.30832 10.9434 7.90445 10.5349 8.37513V6.19528C10.5349 6.00702 10.5144 5.74306 10.3504 5.52744C10.158 5.27456 9.87754 5.21777 9.65914 5.21777H7.59639C7.12163 5.21777 6.75947 5.59425 6.75947 6.01834C6.75947 6.23694 6.84564 6.39981 6.92071 6.50962C6.95549 6.5605 6.99344 6.60777 7.02065 6.64166L7.02066 6.64167L7.02641 6.64883C7.05406 6.68327 7.07593 6.71049 7.09797 6.74044C7.17084 6.83943 7.26153 6.98582 7.28546 7.31069V8.87955C7.18383 8.74978 7.07215 8.59076 6.95449 8.40484C6.56982 7.79701 6.15582 6.95657 5.84944 6.05605L5.84677 6.04821L5.84384 6.04046C5.7757 5.86 5.67884 5.63576 5.49469 5.46853C5.28443 5.27758 5.03261 5.2202 4.78465 5.2202H3.47331C3.21824 5.2202 2.9441 5.27942 2.74481 5.48881C2.54806 5.69554 2.52246 5.94716 2.52246 6.0959C2.52246 6.25211 2.56525 6.47813 2.63436 6.7326C2.70734 7.00131 2.82061 7.34083 2.98492 7.73804C3.31355 8.53252 3.84982 9.56632 4.68678 10.7357C5.84592 12.3918 7.51188 13.3465 9.09679 13.3465C9.51405 13.3465 9.8881 13.3073 10.1554 13.1295C10.5024 12.8987 10.5349 12.5459 10.5349 12.3399V11.2656C10.5448 11.2709 10.5553 11.2767 10.5664 11.2831C10.7199 11.3712 10.9622 11.5502 11.3353 11.9091C11.5475 12.1213 11.7162 12.3052 11.8597 12.4644C11.8865 12.4942 11.9131 12.5238 11.9393 12.553C12.0489 12.6752 12.1522 12.7904 12.2464 12.8852C12.3649 13.0046 12.4998 13.1244 12.6636 13.2112C12.8385 13.3038 13.0222 13.3465 13.2223 13.3465H14.5336C14.7829 13.3465 15.102 13.2873 15.3204 13.034C15.556 12.7608 15.5452 12.4186 15.4628 12.1482L15.4629 12.1481L15.4591 12.1367C15.3726 11.8754 15.1971 11.5982 14.9996 11.3305C14.7965 11.0551 14.5402 10.7508 14.2573 10.4299C14.0925 10.236 13.8945 10.042 13.7343 9.885C13.7269 9.87774 13.7196 9.87056 13.7123 9.86346C13.6263 9.77915 13.5534 9.70733 13.4942 9.64514C13.465 9.61448 13.442 9.58911 13.4245 9.56843C13.4158 9.55825 13.4093 9.55014 13.4045 9.54394L13.3992 9.53684C13.398 9.53513 13.3975 9.53432 13.3975 9.53435L13.3871 9.51861C13.3908 9.51295 13.3947 9.50696 13.3988 9.50059L13.4395 9.43809C13.4458 9.42881 13.4529 9.41837 13.4609 9.4067C13.4725 9.38958 13.4857 9.37022 13.5003 9.34883C13.5394 9.29149 13.5884 9.21959 13.644 9.13733C13.7974 8.91078 14.0051 8.60003 14.2187 8.2643C14.4315 7.92965 14.6537 7.56461 14.8344 7.23026C15.0016 6.92089 15.1616 6.58743 15.2221 6.31865C15.2762 6.12819 15.3162 5.82767 15.1279 5.562C14.9273 5.27886 14.5991 5.21777 14.3446 5.21777H13.0332C12.7714 5.21777 12.5386 5.28881 12.3489 5.43399C12.1661 5.57379 12.0633 5.75192 12.0013 5.8972ZM10.5388 8.85159C10.5388 8.8516 10.5387 8.85131 10.5386 8.85072L10.5388 8.85159ZM7.27273 9.42789C7.27272 9.42788 7.27282 9.42748 7.27304 9.42672L7.27273 9.42789ZM7.63449 9.23842C7.63762 9.23978 7.63923 9.2407 7.63925 9.24081C7.63927 9.24092 7.6377 9.24024 7.63449 9.23842Z" stroke="black"/>
</svg>

<svg width="18" height="18" fill="none" xmlns="http://www.w3.org/2000/svg">
  <path d="M13.2463 0H4.7537C2.088 0 0 2.088 0 4.7537v8.4926C0 15.912 2.088 18 4.7537 18h8.4926C15.912 18 18 15.912 18 13.2463V4.7537C18 2.088 15.9114 0 13.2463 0Zm3.5924 13.2463c0 2.0148-1.5782 3.5924-3.5924 3.5924H4.7537c-2.0142 0-3.5924-1.5782-3.5924-3.5924V4.7537c0-2.0142 1.5782-3.5924 3.5924-3.5924h8.4926c2.0148 0 3.5924 1.5782 3.5924 3.5924v8.4926Z" fill="#000"/>
  <path d="m12.0013 5.8972-.0029.007-.0001.0001v.0003l-.0011.0025-.0049.0118a9.764 9.764 0 0 1-.1049.2384 12.6522 12.6522 0 0 1-.3197.6494c-.2651.5016-.6243 1.0977-1.0328 1.5684V6.1953c0-.1883-.0205-.4522-.1845-.6679-.1924-.2528-.4729-.3096-.6913-.3096H7.5964c-.4748 0-.837.3764-.837.8005 0 .2186.0862.3815.1613.4913.0348.0509.0727.0982.1.132l.0057.0072c.0277.0345.0495.0617.0716.0916.0728.099.1635.2454.1875.5703v1.5689c-.1017-.1298-.2134-.2888-.331-.4748-.3847-.6078-.7987-1.4482-1.105-2.3487l-.0027-.0079-.003-.0077c-.0681-.1805-.165-.4047-.3491-.572-.2103-.191-.462-.2483-.71-.2483H3.4733c-.255 0-.5292.0592-.7285.2686-.1967.2067-.2223.4584-.2223.6071 0 .1562.0427.3822.1119.6367.073.2687.1862.6082.3505 1.0054.3287.7945.865 1.8283 1.7019 2.9977 1.1591 1.6561 2.825 2.6108 4.41 2.6108.4172 0 .7913-.0392 1.0586-.217.347-.2308.3795-.5836.3795-.7896v-1.0743c.0099.0053.0204.0111.0315.0175.1535.0881.3958.2671.7689.626.2122.2122.3809.3961.5244.5553l.0796.0886c.1096.1222.2129.2374.3071.3322.1185.1194.2534.2392.4172.326.1749.0926.3586.1353.5587.1353h1.3113c.2493 0 .5684-.0592.7868-.3125.2356-.2732.2248-.6154.1424-.8858l.0001-.0001-.0038-.0114c-.0865-.2613-.262-.5385-.4595-.8062-.2031-.2754-.4594-.5797-.7423-.9006-.1648-.1939-.3628-.3879-.523-.5449l-.022-.0215a9.4753 9.4753 0 0 1-.2181-.2184 1.8162 1.8162 0 0 1-.0697-.0767.6509.6509 0 0 1-.02-.0245l-.0053-.007-.0017-.0025-.0104-.0158a3.0057 3.0057 0 0 0 .0117-.018l.0407-.0625a37.0591 37.0591 0 0 0 .7792-1.1738c.2128-.3347.435-.6997.6157-1.034.1672-.3094.3272-.6429.3877-.9116.0541-.1905.0941-.491-.0942-.7567-.2006-.2831-.5288-.3442-.7833-.3442h-1.3114c-.2618 0-.4946.071-.6843.2162-.1828.1398-.2856.318-.3476.4632Zm-1.4625 2.9544-.0002-.0009.0002.0009Zm-3.266.5763.0002-.0012-.0003.0012Zm.3617-.1895a.0265.0265 0 0 1 .0047.0024.0248.0248 0 0 1-.0047-.0024Z" stroke="#000"/>
</svg>
